!!!OTL: Hymnisemus domino
**kern
*staff1
=1-
*clefF4
*k[b-]
*met(c|)
*M2/2
1F
2G\
2F\
=2
1E
1F
=3
1D
1C
=4
0FF
=5
1F
1C
=6
0FF
!!linebreak:original
=7
1F
2E\
2E\
=8
1F
1E
=9
1D
1C
=10
0FF
=11
1F
2G\
2C/
=12
!LO:TX:Y=112:t=P
0F
=13
!!linebreak:original
1F
1F
=14
1E
1F
=15
1G
1G
=16
0F
!!linebreak:original
=17
1F
1F
=18
1F
1C
=19
1D
1BB-
=20
0F
=21
!!linebreak:original
1E
1E
=22
0F
=23
4BB-/
4C/
4D\
4E\
2F\
1E
2D\
1C
=24
0FF
==
*-
!!title: @{OTL}, @{GTL}, ed. @{ENC}
!!!pag:
!!!GTL: Hymnbook D
!!!EFL: 
!!!YEM: Creative Commons CC/BY/NC/SA 4.0
!!!ENC: Marcin Konik
!!!END: 2015-0m-dd
!!!EED: Marcin Konik
!!!EEV: 
!!!ONB: Encoded in vim by Marcin Konik
!!!CharacterEncoding: utf-8
!!!RDF**kern: l=long note in original notation
!!!RDF**kern: i=editorial accidental
!!muse2ps: z14jc180F
!!!COM: Anonim
!!!CDT: [?]
!!!TXO: Polish
!!!ODT: 
!!!GTL: Hymnbook D
!!!ARL: Opactwo św. Wojciecha, Staniątki 
!!!voices:	1
